public/avatar/shoe/7.svg

<svg xmlns:xlink="http://www.w3.org/1999/xlink" height="38.3" width="36.05" xmlns="http://www.w3.org/2000/svg"><use height="16.5" transform="translate(9.35 11.6)" width="23.15" xlink:href="#a"/><defs><g id="a"><path d="M-13.8 7.95q.35-1.05 1.5-2.25l.85-1.05L-6-.45l1.9-1.2q2.55-1.4 5.7-1.05 1.8.15 3.4 1Q7.6.8 8.05 4.1l-2.55 2-2.85 1.55-3.4 1.65q-1.8.85-3.65 1.15l-3.8-.1q.15-1.95 2.25-4.2-2.1 2.25-2.25 4.2-2.25-.05-3.55-1.4-1.2.2-2.05-1M-10.1 6q-1.3 1.5-1.65 2.95Q-11.4 7.5-10.1 6" fill="#fff" fill-rule="evenodd" transform="translate(14.45 3.25)"/><path d="M-13.8 7.95q.85 1.2 2.05 1 1.3 1.35 3.55 1.4l3.8.1q1.85-.3 3.65-1.15l3.4-1.65L5.5 6.1l2.55-2 .05.75q.2 1.9-.05 2.3l-.1.15Q6.1 9.55.1 11.6t-8.05.45q-2.2.7-3.75-.6l-.8-.25-.55-.3q-1.3-1.3-.75-2.95m5.6 2.4.25 1.7-.25-1.7m-3.5 1.1q-.35-1.25-.05-2.5-.3 1.25.05 2.5" fill="#ffb79f" fill-rule="evenodd" transform="translate(14.45 3.25)"/><path d="M8.05 4.1Q7.6.8 5-1.7q-1.6-.85-3.4-1-3.15-.35-5.7 1.05L-6-.45l-5.45 5.1-.85 1.05q-1.15 1.2-1.5 2.25-.55 1.65.75 2.95l.55.3.8.25q1.55 1.3 3.75.6l-.25-1.7q.15-1.95 2.25-4.2m-5.8 2.8Q-11.4 7.5-10.1 6M8.05 4.1l.05.75q.2 1.9-.05 2.3l-.1.15Q6.1 9.55.1 11.6t-8.05.45m-3.8-3.1q-.3 1.25.05 2.5" fill="none" stroke="#000" stroke-linecap="round" stroke-linejoin="round" transform="translate(14.45 3.25)"/></g></defs></svg>

<?xml version="1.0" encoding="UTF-8" standalone="no"?>
<svg xmlns:xlink="http://www.w3.org/1999/xlink" height="38.3px" width="36.05px" xmlns="http://www.w3.org/2000/svg">
  <g transform="matrix(1.0, 0.0, 0.0, 1.0, 23.8, 14.85)">
    <use height="16.5" transform="matrix(1.0, 0.0, 0.0, 1.0, -14.45, -3.25)" width="23.15" xlink:href="#shape0"/>
  </g>
  <defs>
    <g id="shape0" transform="matrix(1.0, 0.0, 0.0, 1.0, 14.45, 3.25)">
      <path d="M-13.8 7.95 Q-13.45 6.9 -12.3 5.7 L-11.45 4.65 -6.0 -0.45 -4.1 -1.65 Q-1.55 -3.05 1.6 -2.7 3.4 -2.55 5.0 -1.7 7.6 0.8 8.05 4.1 L5.5 6.1 2.65 7.65 -0.75 9.3 Q-2.55 10.15 -4.4 10.45 L-8.2 10.35 Q-8.05 8.4 -5.95 6.15 -8.05 8.4 -8.2 10.35 -10.45 10.3 -11.75 8.95 -12.95 9.15 -13.8 7.95 M-10.1 6.0 Q-11.4 7.5 -11.75 8.95 -11.4 7.5 -10.1 6.0" fill="#ffffff" fill-rule="evenodd" stroke="none"/>
      <path d="M-13.8 7.95 Q-12.95 9.15 -11.75 8.95 -10.45 10.3 -8.2 10.35 L-4.4 10.45 Q-2.55 10.15 -0.75 9.3 L2.65 7.65 5.5 6.1 8.05 4.1 8.1 4.85 Q8.3 6.75 8.05 7.15 L7.95 7.3 Q6.1 9.55 0.1 11.6 -5.9 13.65 -7.95 12.05 -10.15 12.75 -11.7 11.45 L-12.5 11.2 -13.05 10.9 Q-14.35 9.6 -13.8 7.95 M-8.2 10.35 L-7.95 12.05 -8.2 10.35 M-11.7 11.45 Q-12.05 10.2 -11.75 8.95 -12.05 10.2 -11.7 11.45" fill="#ffb79f" fill-rule="evenodd" stroke="none"/>
      <path d="M8.05 4.1 Q7.6 0.8 5.0 -1.7 3.4 -2.55 1.6 -2.7 -1.55 -3.05 -4.1 -1.65 L-6.0 -0.45 -11.45 4.65 -12.3 5.7 Q-13.45 6.9 -13.8 7.95 -14.35 9.6 -13.05 10.9 L-12.5 11.2 -11.7 11.45 Q-10.15 12.75 -7.95 12.05 L-8.2 10.35 Q-8.05 8.4 -5.95 6.15 M-11.75 8.95 Q-11.4 7.5 -10.1 6.0 M8.05 4.1 L8.1 4.85 Q8.3 6.75 8.05 7.15 L7.95 7.3 Q6.1 9.55 0.1 11.6 -5.9 13.65 -7.95 12.05 M-11.75 8.95 Q-12.05 10.2 -11.7 11.45" fill="none" stroke="#000000" stroke-linecap="round" stroke-linejoin="round" stroke-width="1.0"/>
    </g>
  </defs>
</svg>
